Resources/Public/Icons/Extension.svg

<svg width="169px" height="169px" viewBox="0 0 169 169" version="1.1" xmlns="http://www.w3.org/2000/svg"
     xmlns:xlink="http://www.w3.org/1999/xlink" xml:space="preserve" xmlns:serif="http://www.serif.com/"
     style="fill-rule:evenodd;clip-rule:evenodd;stroke-linejoin:round;stroke-miterlimit:2;"><g><rect x="0" y="0" width="169" height="169" style="fill:#6d8764;"/></g>
    <g><g><path d="M135.2,85.374l0,-41.958c0,-5.245 -4.37,-9.616 -9.616,-9.616l-41.958,0c-5.244,0 -9.616,4.37 -9.616,9.616l0,30.595l-30.595,0c-5.244,0 -9.615,4.37 -9.615,9.616l0,41.784c0,5.42 4.37,9.79 9.615,9.79l41.784,0c5.42,0 9.616,-4.37 9.616,-9.616l0,-30.595l30.595,0c5.42,0 9.79,-4.37 9.79,-9.616Zm-47.204,40.211c0,1.573 -1.224,2.623 -2.623,2.623l-41.958,0c-1.399,0 -2.623,-1.224 -2.623,-2.623l0,-41.958c0,-1.399 1.224,-2.623 2.623,-2.623l30.595,0l0,4.37c0,5.42 4.37,9.616 9.616,9.616l4.37,0l0,30.595Zm40.211,-40.211c0,1.573 -1.224,2.623 -2.623,2.623l-41.958,0c-1.573,0 -2.623,-1.224 -2.623,-2.623l0,-41.958c0,-1.399 1.224,-2.623 2.623,-2.623l41.784,0c1.573,0 2.797,1.224 2.797,2.623l0,41.958Z" style="fill:#d8dee9;fill-rule:nonzero;"/></g>
        <g><path d="M131.704,105.479c0,-1.923 -1.573,-3.497 -3.497,-3.497c-1.923,0 -3.497,1.573 -3.497,3.497c0,6.819 -5.594,12.762 -12.588,13.112c1.399,-1.399 1.399,-3.497 0,-4.895c-1.399,-1.399 -3.497,-1.399 -4.895,0l-5.944,5.769c-0.699,0.699 -1.05,1.573 -1.05,2.448l0,0.349c0,1.224 0.699,2.448 1.749,2.972l5.419,5.42c0.699,0.699 1.574,1.05 2.448,1.05c0.874,0 1.748,-0.35 2.447,-1.05c1.399,-1.399 1.399,-3.497 0,-4.895c10.84,-0.525 19.406,-9.44 19.406,-20.28Z" style="fill:#d8dee9;fill-rule:nonzero;"/></g>
        <g><path d="M37.297,63.346c0,1.923 1.574,3.497 3.498,3.497c1.922,0 3.495,-1.573 3.495,-3.497c0,-6.819 5.594,-12.762 12.588,-13.112c-1.399,1.399 -1.399,3.497 0,4.895c0.7,0.699 1.574,1.05 2.448,1.05c0.874,0 1.748,-0.35 2.448,-1.05l6.118,-5.944c0.699,-0.7 1.05,-1.574 1.05,-2.448l0,-0.349c0,-1.224 -0.699,-2.448 -1.749,-2.973l-5.419,-5.419c-1.399,-1.399 -3.498,-1.399 -4.896,0c-1.399,1.399 -1.399,3.495 0,4.894c-11.013,0.7 -19.581,9.616 -19.581,20.454l0,0.001Z" style="fill:#d8dee9;fill-rule:nonzero;"/></g>
        <g><path d="M64.395,89.745c-8.217,0 -14.86,6.644 -14.86,14.86c0,8.217 6.644,14.86 14.86,14.86c8.216,0 14.86,-6.643 14.86,-14.86c0,-8.216 -6.644,-14.86 -14.86,-14.86Zm0,22.727c-4.37,0 -7.867,-3.497 -7.867,-7.867c0,-4.37 3.497,-7.867 7.867,-7.867c4.37,0 7.867,3.497 7.867,7.867c0,4.37 -3.497,7.867 -7.867,7.867Z" style="fill:#d8dee9;fill-rule:nonzero;"/></g>
        <g><path d="M108.452,51.108c-0.699,-1.05 -1.748,-1.573 -2.972,-1.573c-1.224,0 -2.272,0.525 -2.972,1.573l-12.238,19.231c-0.699,1.048 -0.699,2.447 -0.176,3.497c0.699,1.048 1.749,1.748 3.147,1.748l24.476,0c1.224,0 2.447,-0.699 3.146,-1.748c0.699,-1.05 0.525,-2.448 -0.175,-3.497l-12.237,-19.231Zm-8.916,17.657l5.945,-9.266l5.944,9.266l-11.888,0Z" style="fill:#d8dee9;fill-rule:nonzero;"/></g></g></svg>

<svg width="100%" height="100%" viewBox="0 0 24 24" version="1.1" xmlns="http://www.w3.org/2000/svg" xmlns:xlink="http://www.w3.org/1999/xlink" xml:space="preserve" xmlns:serif="http://www.serif.com/" style="fill-rule:evenodd;clip-rule:evenodd;stroke-linejoin:round;stroke-miterlimit:2;">
    <g transform="matrix(1,0,0,1,0,-64)">
        <g id="File-Sync" serif:id="File Sync" transform="matrix(0.24,0,0,0.24,-0.48,64.24)">
            <rect x="2" y="-1" width="100" height="100" style="fill:none;"/>
            <clipPath id="_clip1">
                <rect x="2" y="-1" width="100" height="100"/>
            </clipPath>
            <g clip-path="url(#_clip1)">
                <g transform="matrix(50,0,0,50,2,-1)">
                    <rect x="0" y="0" width="2" height="2" style="fill:rgb(39,125,161);"/>
                </g>
                <g transform="matrix(0.575279,0,0,0.575279,3.388889,0.388601)">
                    <g>
                        <path d="M135.2,85.374L135.2,43.416C135.2,38.171 130.83,33.8 125.584,33.8L83.626,33.8C78.382,33.8 74.01,38.17 74.01,43.416L74.01,74.011L43.415,74.011C38.171,74.011 33.8,78.381 33.8,83.627L33.8,125.411C33.8,130.831 38.17,135.201 43.415,135.201L85.199,135.201C90.619,135.201 94.815,130.831 94.815,125.585L94.815,94.99L125.41,94.99C130.83,94.99 135.2,90.62 135.2,85.374ZM87.996,125.585C87.996,127.158 86.772,128.208 85.373,128.208L43.415,128.208C42.016,128.208 40.792,126.984 40.792,125.585L40.792,83.627C40.792,82.228 42.016,81.004 43.415,81.004L74.01,81.004L74.01,85.374C74.01,90.794 78.38,94.99 83.626,94.99L87.996,94.99L87.996,125.585ZM128.207,85.374C128.207,86.947 126.983,87.997 125.584,87.997L83.626,87.997C82.053,87.997 81.003,86.773 81.003,85.374L81.003,43.416C81.003,42.017 82.227,40.793 83.626,40.793L125.41,40.793C126.983,40.793 128.207,42.017 128.207,43.416L128.207,85.374Z" style="fill-rule:nonzero;"/>
                    </g>
                    <g>
                        <path d="M131.704,105.479C131.704,103.556 130.131,101.982 128.207,101.982C126.284,101.982 124.71,103.555 124.71,105.479C124.71,112.298 119.116,118.241 112.122,118.591C113.521,117.192 113.521,115.094 112.122,113.696C110.723,112.297 108.625,112.297 107.227,113.696L101.283,119.465C100.584,120.164 100.233,121.038 100.233,121.913L100.233,122.262C100.233,123.486 100.932,124.71 101.982,125.234L107.401,130.654C108.1,131.353 108.975,131.704 109.849,131.704C110.723,131.704 111.597,131.354 112.296,130.654C113.695,129.255 113.695,127.157 112.296,125.759C123.136,125.234 131.702,116.319 131.702,105.479L131.704,105.479Z" style="fill-opacity:0.4;fill-rule:nonzero;"/>
                    </g>
                    <g>
                        <path d="M37.297,63.346C37.297,65.269 38.871,66.843 40.795,66.843C42.717,66.843 44.29,65.27 44.29,63.346C44.29,56.527 49.884,50.584 56.878,50.234C55.479,51.633 55.479,53.731 56.878,55.129C57.578,55.828 58.452,56.179 59.326,56.179C60.2,56.179 61.074,55.829 61.774,55.129L67.892,49.185C68.591,48.485 68.942,47.611 68.942,46.737L68.942,46.388C68.942,45.164 68.243,43.94 67.193,43.415L61.774,37.996C60.375,36.597 58.276,36.597 56.878,37.996C55.479,39.395 55.479,41.491 56.878,42.89C45.865,43.59 37.297,52.506 37.297,63.344L37.297,63.346Z" style="fill-opacity:0.4;fill-rule:nonzero;"/>
                    </g>
                    <g>
                        <path d="M64.395,89.745C56.178,89.745 49.535,96.389 49.535,104.605C49.535,112.822 56.179,119.465 64.395,119.465C72.611,119.465 79.255,112.822 79.255,104.605C79.255,96.389 72.611,89.745 64.395,89.745ZM64.395,112.472C60.025,112.472 56.528,108.975 56.528,104.605C56.528,100.235 60.025,96.738 64.395,96.738C68.765,96.738 72.262,100.235 72.262,104.605C72.262,108.975 68.765,112.472 64.395,112.472Z" style="fill-opacity:0.4;fill-rule:nonzero;"/>
                    </g>
                    <g>
                        <path d="M108.452,51.108C107.753,50.058 106.704,49.535 105.48,49.535C104.256,49.535 103.208,50.06 102.508,51.108L90.27,70.339C89.571,71.387 89.571,72.786 90.094,73.836C90.793,74.884 91.843,75.584 93.241,75.584L117.717,75.584C118.941,75.584 120.164,74.885 120.863,73.836C121.562,72.786 121.388,71.388 120.688,70.339L108.451,51.108L108.452,51.108ZM99.536,68.765L105.481,59.499L111.425,68.765L99.536,68.765Z" style="fill-opacity:0.4;fill-rule:nonzero;"/>
                    </g>
                </g>
            </g>
        </g>
        <g id="Colors">
        </g>
    </g>
</svg>
